dist/svg/u1F984.svg

<?xml version="1.0" encoding="UTF-8"?><svg id="Layer_1" xmlns="http://www.w3.org/2000/svg" viewBox="0 0 40 40"><g><g><path d="M9.35819,10.96615l-4.10886,4.49896c-.66359,.7266-.80229,1.79048-.34717,2.66293l1.4829,2.84262c.21498,.4121,.18111,.90988-.08771,1.28907l-2.12708,3.00036c-.55218,.77888-.57635,1.81494-.06111,2.61873l1.29662,2.02272c.40978,.63925,.48425,1.43747,.19981,2.1415l-1.59057,3.93683h6.03476l-.6916-25.01371Z" style="fill:#696c9d;"/><path d="M22.96694,35.97991H7.76029S6.39188,11.38951,12.0771,4.91471c.09711-.1106,.27389-.09749,.36348,.01929l3.7696,4.91398c.26309,.34296,.64226,.57816,1.06639,.6615l17.25939,3.49529c1.09859,.21586,1.84437,1.24299,1.70951,2.35443l-.21414,1.76493c-.60335,5.33365,.22988,7.55763-9.55939,7.29257l-5.6558,.00004,2.15079,10.56317Z" style="fill:#b1b3fb;"/><circle cx="21.30487" cy="15.36002" r="1.66207"/></g><path d="M24.621,3.11689l-.92289,8.67959-6.06157-1.19477,6.13132-7.88957c.32378-.3819,.94411-.0876,.85313,.40475Z" style="fill:#696c9d;"/></g><rect width="40" height="40" style="fill:none;"/></svg>

<svg id="Layer_1" data-name="Layer 1" xmlns="http://www.w3.org/2000/svg" viewBox="0 0 40 40"><defs><style>.cls-1{fill:#696c9d;}.cls-2{fill:#b1b3fb;}.cls-3{fill:none;}</style></defs><path class="cls-1" d="M9.358,10.966l-4.109,4.5A2.344,2.344,0,0,0,4.9,18.128l1.483,2.843A1.238,1.238,0,0,1,6.3,22.26l-2.127,3a2.344,2.344,0,0,0-.061,2.619l1.3,2.023a2.342,2.342,0,0,1,.2,2.141L4.015,35.98H10.05Z"/><path class="cls-2" d="M22.967,35.98H7.76S6.392,11.39,12.077,4.915a.237.237,0,0,1,.364.019L16.21,9.848a1.772,1.772,0,0,0,1.067.661l17.259,3.5a2.136,2.136,0,0,1,1.709,2.354l-.214,1.765c-.6,5.334.23,7.558-9.559,7.293H20.816Z"/><circle cx="21.305" cy="15.36" r="1.662"/><path class="cls-1" d="M24.621,3.117,23.7,11.8,17.637,10.6l6.131-7.89A.489.489,0,0,1,24.621,3.117Z"/><rect class="cls-3" width="40" height="40"/></svg>
